X:1
T:All Glory to Jesus
T:All Glory to Jesus
T:James David Vaughan, 1913
T:Public Domain Courtesy of the Cyber Hymnal™
C:James David Vaughan, 1913
Z:Public Domain
Z:Courtesy of the Cyber Hymnal™
%%score ( 1 2 ) ( 3 4 )
L:1/8
Q:1/4=100
M:6/8
K:Ab
V:1 treble 
V:2 treble 
V:3 bass 
V:4 bass 
V:1
 [CE] | [CE][CF][CG] [CA][DB][Ec] | [Ae]2 [A=d] [Ae]2 [Ec] | [Fc]>[FB][FA] [=DA][DG][DA] | %4
w: 1.~All|glo- ry to Je- sus, my|lov- ing king, He|bless- es me ev- er- y|
w: 2.~I’m|march- ing to Zi- on, my|home a- bove, The|ci- ty of God in the|
w: 3.~O|come and go with me to|that bright land, You|all of its glo- ries may|
 [EB]3- [EB]2 [DE] | [CE][CF][CG] [CA][DB][Ec] | [Ae]2 [A=d] [Ae]2 [CA] | %7
w: day; * Sweet|Gos- pel ho- san- nas I|glad- ly sing; And|
w: sky; * Ere|long I shall en- ter that|land of love, And|
w: share; * May|join the glad song of the|an- gel band, And|
 [Ec]>[Ec][Ec] [Ec][CA][DB] | [CA]3- [CA]2 ||"^Refrain" [EA] | [Ac] c2- c2 [Ec] | %11
w: glo- ry now bright- ens my|way. *|Ho-|san- na * to|
w: sing while the ag- es roll|by. *|||
w: meet ma- ny loved ones up|there. *|||
 [Ae] e2- [Ae]2 [Ae] | [Ae][Ac][Ae] [Af][Ae][Ac] | B3- [GB]2 [EA] | [Ac] c2- c2 [_Gc] | %15
w: Je- sus His bless-|* ings are wond- rous and|free; I’ll praise|* Him * for-|
w: ||||
w: ||||
 [Fe] d2- [Fd]2 [Fd] | [Ec]>[Ec][Ec] [Ec][CA][DB] | [CA]3- [CA]2 |] %18
w: ev- er For He|* is so pre- cious to|me. *|
w: |||
w: |||
V:2
 x | x6 | x6 | x6 | x6 | x6 | x6 | x6 | x5 || x | x (AAAA) x | x AA x3 | x6 | GGA x3 | x (AAAA) x | %15
 x FF x3 | x6 | x5 |] %18
V:3
 [A,,A,] | [A,,A,][A,,A,][A,,A,] [A,,A,][A,,A,][A,,A,] | [A,C]2 [A,=B,] [A,C]2 A, | %3
w: ~|~ ~ ~ ~ ~ ~|~ ~ ~ ~|
 [F,A,]>[F,A,][F,A,] [B,,C][B,,B,][B,,A,] | [E,G,]3- [E,G,]2 [E,G,] | %5
w: ~ ~ ~ ~ ~ ~|~ * ~|
 [A,,A,][A,,A,][A,,A,] [A,,A,][A,,A,][A,,A,] | [A,C]2 [A,=B,] [A,C]2 A, | %7
w: ~ ~ ~ ~ ~ ~|~ ~ ~ ~|
 [E,A,]>[E,A,][E,A,] [E,A,]E,E, | [A,,E,]3- [A,,E,]2 || [A,C] | [A,E][A,E][A,E] [A,E][A,E]A, | %11
w: ~ ~ ~ ~ ~ ~|~ *|~|~ ~ to Je- sus, my|
 [A,,C][C,C][E,C] [A,C]2 [A,C] | [A,C]A,[A,C] [A,D][A,C][A,E] | [E,E][E,E][F,=D] [E,E]2 [A,C] | %14
w: Sav- ior and King, ~|~ ~ ~ ~ ~ are|wond- rous and free; ~|
 [A,E][A,E][A,E] [A,E][A,E]A, | [D,A,][D,A,][D,A,] [D,A,]2 [D,A,] | %16
w: ~ ~ for- ev- er, His|Gos- pel I’ll sing, *|
 [E,A,]>[E,A,][E,A,] [E,A,]E,E, | [A,,E,]3- [A,,E,]2 |] %18
w: ||
V:4
 x | x6 | x5 A, | x6 | x6 | x6 | x5 A, | x4 E,E, | x5 || x | x5 A, | x6 | x A, x4 | x6 | x5 A, | %15
 x6 | x4 E,E, | x5 |] %18

